gtk-icons/Papirus-GTK/16x16/actions/reverse.svg

<?xml version="1.0" encoding="UTF-8" standalone="no"?>
<!-- Created with Inkscape (http://www.inkscape.org/) -->
<svg id="svg3049" xmlns:rdf="http://www.w3.org/1999/02/22-rdf-syntax-ns#" xmlns="http://www.w3.org/2000/svg" height="16" width="16" version="1.1" xmlns:cc="http://creativecommons.org/ns#" xmlns:dc="http://purl.org/dc/elements/1.1/">
 <defs id="defs3051">
  <style id="current-color-scheme" type="text/css">.ColorScheme-Text {
        color:#4d4d4d;
      }
      .ColorScheme-Background {
        color:#eff0f1;
      }
      .ColorScheme-Highlight {
        color:#3daee9;
      }
      .ColorScheme-ViewText {
        color:#31363b;
      }
      .ColorScheme-ViewBackground {
        color:#fcfcfc;
      }
      .ColorScheme-ViewHover {
        color:#93cee9;
      }
      .ColorScheme-ViewFocus{
        color:#3daee9;
      }
      .ColorScheme-ButtonText {
        color:#31363b;
      }
      .ColorScheme-ButtonBackground {
        color:#eff0f1;
      }
      .ColorScheme-ButtonHover {
        color:#93cee9;
      }
      .ColorScheme-ButtonFocus{
        color:#3daee9;
      }</style>
 </defs>
 <metadata id="metadata3054">
  <rdf:RDF>
   <cc:Work rdf:about="">
    <dc:format>image/svg+xml</dc:format>
    <dc:type rdf:resource="http://purl.org/dc/dcmitype/StillImage"/>
    <dc:title/>
   </cc:Work>
  </rdf:RDF>
 </metadata>
 <g id="layer1" transform="translate(-421.71 -531.79)">
  <path id="path4184" opacity=".5" style="color:#4d4d4d" d="m4 1l-3 3h1.666 0.334v6 5h2v-6-5h2l-3-3zm7 0v5 6h-0.334-1.666l3 3 3-3h-2v-5-6h-2z" transform="translate(421.71 531.79)"/>
  <rect id="rect4035" class="ColorScheme-Text" height="11" width="0" y="546.67" x="409.87" fill="currentColor"/>
  <rect id="rect4035-5" class="ColorScheme-Text" height="11" width="0" y="544.61" x="427.91" fill="currentColor"/>
  <rect id="rect4035-8" class="ColorScheme-Text" height="11" width="0" y="546.67" x="409.87" fill="currentColor"/>
  <rect id="rect4035-59" class="ColorScheme-Text" height="11" width="0" y="546.67" x="409.87" fill="currentColor"/>
  <text id="text3781" style="word-spacing:0px;letter-spacing:0px" line-height="125%" font-size="9px" class="ColorScheme-Text" y="559.42297" x="425.30652" font-family="Sans" xml:space="preserve" fill="currentColor"><tspan id="tspan3783" x="425.30652" y="559.42297"/></text>
  <text id="text3781-8" style="word-spacing:0px;letter-spacing:0px" line-height="125%" font-size="9px" class="ColorScheme-Text" y="553.55963" x="426.04321" font-family="Sans" xml:space="preserve" fill="currentColor"><tspan id="tspan3783-1" x="426.04321" y="553.55963"/></text>
  <text id="text3781-4" style="word-spacing:0px;letter-spacing:0px" line-height="125%" font-size="9px" class="ColorScheme-Text" y="560.42297" x="419.30652" font-family="Sans" xml:space="preserve" fill="currentColor"><tspan id="tspan3783-13" x="419.30652" y="560.42297"/></text>
  <rect id="rect4035-9" class="ColorScheme-Text" height="11" width="0" y="546.67" x="409.87" fill="currentColor"/>
  <rect id="rect4035-5-7" class="ColorScheme-Text" height="11" width="0" y="544.61" x="427.91" fill="currentColor"/>
  <rect id="rect4035-9-0" class="ColorScheme-Text" height="11" width="0" y="546.67" x="389.87" fill="currentColor"/>
  <rect id="rect4035-5-7-5" class="ColorScheme-Text" height="11" width="0" y="544.61" x="407.91" fill="currentColor"/>
  <rect id="rect4035-3" class="ColorScheme-Text" height="11" width="0" y="546.67" x="409.87" fill="currentColor"/>
  <rect id="rect4035-5-4" class="ColorScheme-Text" height="11" width="0" y="544.61" x="427.91" fill="currentColor"/>
  <rect id="rect4035-8-7" class="ColorScheme-Text" height="11" width="0" y="546.67" x="409.87" fill="currentColor"/>
  <rect id="rect4035-59-1" class="ColorScheme-Text" height="11" width="0" y="546.67" x="409.87" fill="currentColor"/>
  <text id="text3781-1" style="word-spacing:0px;letter-spacing:0px" line-height="125%" font-size="9px" class="ColorScheme-Text" y="559.42297" x="425.30652" font-family="Sans" xml:space="preserve" fill="currentColor"><tspan id="tspan3783-8" x="425.30652" y="559.42297"/></text>
  <text id="text3781-8-2" style="word-spacing:0px;letter-spacing:0px" line-height="125%" font-size="9px" class="ColorScheme-Text" y="553.55963" x="426.04321" font-family="Sans" xml:space="preserve" fill="currentColor"><tspan id="tspan3783-1-6" x="426.04321" y="553.55963"/></text>
  <text id="text3781-4-7" style="word-spacing:0px;letter-spacing:0px" line-height="125%" font-size="9px" class="ColorScheme-Text" y="560.42297" x="419.30652" font-family="Sans" xml:space="preserve" fill="currentColor"><tspan id="tspan3783-13-8" x="419.30652" y="560.42297"/></text>
  <rect id="rect4035-9-08" class="ColorScheme-Text" height="11" width="0" y="546.67" x="409.87" fill="currentColor"/>
  <rect id="rect4035-5-7-8" class="ColorScheme-Text" height="11" width="0" y="544.61" x="427.91" fill="currentColor"/>
  <rect id="rect4035-9-0-2" class="ColorScheme-Text" height="11" width="0" y="546.67" x="389.87" fill="currentColor"/>
  <rect id="rect4035-5-7-5-2" class="ColorScheme-Text" height="11" width="0" y="544.61" x="407.91" fill="currentColor"/>
  <rect id="rect4035-2" class="ColorScheme-Text" height="11" width="0" y="548.64" x="405.64" fill="currentColor"/>
  <rect id="rect4035-5-0" class="ColorScheme-Text" height="11" width="0" y="546.59" x="423.68" fill="currentColor"/>
  <rect id="rect4035-8-1" class="ColorScheme-Text" height="11" width="0" y="548.64" x="405.64" fill="currentColor"/>
  <rect id="rect4035-59-7" class="ColorScheme-Text" height="11" width="0" y="548.64" x="405.64" fill="currentColor"/>
  <text id="text3781-41" style="word-spacing:0px;letter-spacing:0px" line-height="125%" font-size="9px" class="ColorScheme-Text" y="561.39795" x="421.07214" font-family="Sans" xml:space="preserve" fill="currentColor"><tspan id="tspan3783-9" x="421.07214" y="561.39795"/></text>
  <text id="text3781-8-7" style="word-spacing:0px;letter-spacing:0px" line-height="125%" font-size="9px" class="ColorScheme-Text" y="555.53461" x="421.80884" font-family="Sans" xml:space="preserve" fill="currentColor"><tspan id="tspan3783-1-2" x="421.80884" y="555.53461"/></text>
  <text id="text3781-4-3" style="word-spacing:0px;letter-spacing:0px" line-height="125%" font-size="9px" class="ColorScheme-Text" y="562.39795" x="415.07214" font-family="Sans" xml:space="preserve" fill="currentColor"><tspan id="tspan3783-13-6" x="415.07214" y="562.39795"/></text>
  <rect id="rect4035-9-9" class="ColorScheme-Text" height="11" width="0" y="548.64" x="405.64" fill="currentColor"/>
  <rect id="rect4035-5-7-9" class="ColorScheme-Text" height="11" width="0" y="546.59" x="423.68" fill="currentColor"/>
  <rect id="rect4035-9-0-5" class="ColorScheme-Text" height="11" width="0" y="548.64" x="385.64" fill="currentColor"/>
  <rect id="rect4035-5-7-5-3" class="ColorScheme-Text" height="11" width="0" y="546.59" x="403.68" fill="currentColor"/>
 </g>
</svg>

<?xml version="1.0" encoding="UTF-8" standalone="no"?>
<!-- Created with Inkscape (http://www.inkscape.org/) -->

<svg
   xmlns:dc="http://purl.org/dc/elements/1.1/"
   xmlns:cc="http://creativecommons.org/ns#"
   xmlns:rdf="http://www.w3.org/1999/02/22-rdf-syntax-ns#"
   xmlns:svg="http://www.w3.org/2000/svg"
   xmlns="http://www.w3.org/2000/svg"
   xmlns:sodipodi="http://sodipodi.sourceforge.net/DTD/sodipodi-0.dtd"
   xmlns:inkscape="http://www.inkscape.org/namespaces/inkscape"
   width="16"
   height="16"
   id="svg3049"
   version="1.1"
   inkscape:version="0.91 r13725"
   sodipodi:docname="reverse.svg"
   inkscape:export-filename="/home/uri/.kde/share/icons/NITRUX-KDE/16x16/actions/view-right-new.png"
   inkscape:export-xdpi="30"
   inkscape:export-ydpi="30">
  <defs
     id="defs3051">
    <style
       type="text/css"
       id="current-color-scheme">
      .ColorScheme-Text {
        color:#4d4d4d;
      }
      .ColorScheme-Background {
        color:#eff0f1;
      }
      .ColorScheme-Highlight {
        color:#3daee9;
      }
      .ColorScheme-ViewText {
        color:#31363b;
      }
      .ColorScheme-ViewBackground {
        color:#fcfcfc;
      }
      .ColorScheme-ViewHover {
        color:#93cee9;
      }
      .ColorScheme-ViewFocus{
        color:#3daee9;
      }
      .ColorScheme-ButtonText {
        color:#31363b;
      }
      .ColorScheme-ButtonBackground {
        color:#eff0f1;
      }
      .ColorScheme-ButtonHover {
        color:#93cee9;
      }
      .ColorScheme-ButtonFocus{
        color:#3daee9;
      }
      </style>
  </defs>
  <sodipodi:namedview
     id="base"
     pagecolor="#ffffff"
     bordercolor="#666666"
     borderopacity="1.0"
     inkscape:pageopacity="0.0"
     inkscape:pageshadow="2"
     inkscape:zoom="24.48"
     inkscape:cx="3.6655018"
     inkscape:cy="8.3788415"
     inkscape:document-units="px"
     inkscape:current-layer="layer1"
     showgrid="false"
     fit-margin-top="0"
     fit-margin-left="0"
     fit-margin-right="0"
     fit-margin-bottom="0"
     inkscape:window-width="1600"
     inkscape:window-height="847"
     inkscape:window-x="0"
     inkscape:window-y="30"
     inkscape:window-maximized="1"
     inkscape:showpageshadow="false"
     borderlayer="true"
     inkscape:snap-bbox="true"
     inkscape:snap-global="true"
     inkscape:object-nodes="true"
     showguides="false">
    <inkscape:grid
       type="xygrid"
       id="grid4085" />
    <sodipodi:guide
       position="2.0000044,14.00003"
       orientation="12,0"
       id="guide4075" />
    <sodipodi:guide
       position="2.0000044,2.0000296"
       orientation="0,12"
       id="guide4077" />
    <sodipodi:guide
       position="14.000004,2.0000296"
       orientation="-12,0"
       id="guide4079" />
    <sodipodi:guide
       position="14.000004,14.00003"
       orientation="0,-12"
       id="guide4081" />
  </sodipodi:namedview>
  <metadata
     id="metadata3054">
    <rdf:RDF>
      <cc:Work
         rdf:about="">
        <dc:format>image/svg+xml</dc:format>
        <dc:type
           rdf:resource="http://purl.org/dc/dcmitype/StillImage" />
        <dc:title></dc:title>
      </cc:Work>
    </rdf:RDF>
  </metadata>
  <g
     inkscape:label="Capa 1"
     inkscape:groupmode="layer"
     id="layer1"
     transform="translate(-421.71429,-531.79074)">
    <path
       style="color:#4d4d4d;opacity:0.5;fill:#000000;fill-opacity:1;stroke:none"
       d="M 4 1 L 1 4 L 2.6660156 4 L 3 4 L 3 10 L 3 15 L 5 15 L 5 9 L 5 4 L 7 4 L 4 1 z M 11 1 L 11 6 L 11 12 L 10.666016 12 L 9 12 L 12 15 L 15 12 L 13 12 L 13 7 L 13 1 L 11 1 z "
       transform="translate(421.71429,531.79074)"
       id="path4184" />
    <rect
       style="fill:currentColor;fill-opacity:1;stroke:none"
       id="rect4035"
       width="0"
       height="10.999983"
       x="409.87054"
       y="546.66571"
       class="ColorScheme-Text" />
    <rect
       style="fill:currentColor;fill-opacity:1;stroke:none"
       id="rect4035-5"
       width="0"
       height="10.999983"
       x="427.91132"
       y="544.61438"
       class="ColorScheme-Text" />
    <rect
       style="fill:currentColor;fill-opacity:1;stroke:none"
       id="rect4035-8"
       width="0"
       height="10.999983"
       x="409.87054"
       y="546.66571"
       class="ColorScheme-Text" />
    <rect
       style="fill:currentColor;fill-opacity:1;stroke:none"
       id="rect4035-59"
       width="0"
       height="10.999983"
       x="409.87054"
       y="546.66571"
       class="ColorScheme-Text" />
    <text
       sodipodi:linespacing="125%"
       id="text3781"
       y="559.42297"
       x="425.30652"
       style="font-style:normal;font-weight:normal;font-size:9px;line-height:125%;font-family:Sans;letter-spacing:0px;word-spacing:0px;fill:currentColor;fill-opacity:1;stroke:none"
       xml:space="preserve"
       class="ColorScheme-Text"><tspan
         id="tspan3783"
         sodipodi:role="line"
         x="425.30652"
         y="559.42297" /></text>
    <text
       sodipodi:linespacing="125%"
       id="text3781-8"
       y="553.55963"
       x="426.04321"
       style="font-style:normal;font-weight:normal;font-size:9px;line-height:125%;font-family:Sans;letter-spacing:0px;word-spacing:0px;fill:currentColor;fill-opacity:1;stroke:none"
       xml:space="preserve"
       class="ColorScheme-Text"><tspan
         id="tspan3783-1"
         sodipodi:role="line"
         x="426.04321"
         y="553.55963" /></text>
    <text
       sodipodi:linespacing="125%"
       id="text3781-4"
       y="560.42297"
       x="419.30652"
       style="font-style:normal;font-weight:normal;font-size:9px;line-height:125%;font-family:Sans;letter-spacing:0px;word-spacing:0px;fill:currentColor;fill-opacity:1;stroke:none"
       xml:space="preserve"
       class="ColorScheme-Text"><tspan
         id="tspan3783-13"
         sodipodi:role="line"
         x="419.30652"
         y="560.42297" /></text>
    <rect
       style="fill:currentColor;fill-opacity:1;stroke:none"
       id="rect4035-9"
       width="0"
       height="10.999983"
       x="409.87054"
       y="546.66571"
       class="ColorScheme-Text" />
    <rect
       style="fill:currentColor;fill-opacity:1;stroke:none"
       id="rect4035-5-7"
       width="0"
       height="10.999983"
       x="427.91132"
       y="544.61438"
       class="ColorScheme-Text" />
    <rect
       style="fill:currentColor;fill-opacity:1;stroke:none"
       id="rect4035-9-0"
       width="0"
       height="10.999983"
       x="389.87054"
       y="546.66571"
       class="ColorScheme-Text" />
    <rect
       style="fill:currentColor;fill-opacity:1;stroke:none"
       id="rect4035-5-7-5"
       width="0"
       height="10.999983"
       x="407.91132"
       y="544.61438"
       class="ColorScheme-Text" />
    <rect
       style="fill:currentColor;fill-opacity:1;stroke:none"
       id="rect4035-3"
       width="0"
       height="10.999983"
       x="409.87054"
       y="546.66571"
       class="ColorScheme-Text" />
    <rect
       style="fill:currentColor;fill-opacity:1;stroke:none"
       id="rect4035-5-4"
       width="0"
       height="10.999983"
       x="427.91132"
       y="544.61438"
       class="ColorScheme-Text" />
    <rect
       style="fill:currentColor;fill-opacity:1;stroke:none"
       id="rect4035-8-7"
       width="0"
       height="10.999983"
       x="409.87054"
       y="546.66571"
       class="ColorScheme-Text" />
    <rect
       style="fill:currentColor;fill-opacity:1;stroke:none"
       id="rect4035-59-1"
       width="0"
       height="10.999983"
       x="409.87054"
       y="546.66571"
       class="ColorScheme-Text" />
    <text
       sodipodi:linespacing="125%"
       id="text3781-1"
       y="559.42297"
       x="425.30652"
       style="font-style:normal;font-weight:normal;font-size:9px;line-height:125%;font-family:Sans;letter-spacing:0px;word-spacing:0px;fill:currentColor;fill-opacity:1;stroke:none"
       xml:space="preserve"
       class="ColorScheme-Text"><tspan
         id="tspan3783-8"
         sodipodi:role="line"
         x="425.30652"
         y="559.42297" /></text>
    <text
       sodipodi:linespacing="125%"
       id="text3781-8-2"
       y="553.55963"
       x="426.04321"
       style="font-style:normal;font-weight:normal;font-size:9px;line-height:125%;font-family:Sans;letter-spacing:0px;word-spacing:0px;fill:currentColor;fill-opacity:1;stroke:none"
       xml:space="preserve"
       class="ColorScheme-Text"><tspan
         id="tspan3783-1-6"
         sodipodi:role="line"
         x="426.04321"
         y="553.55963" /></text>
    <text
       sodipodi:linespacing="125%"
       id="text3781-4-7"
       y="560.42297"
       x="419.30652"
       style="font-style:normal;font-weight:normal;font-size:9px;line-height:125%;font-family:Sans;letter-spacing:0px;word-spacing:0px;fill:currentColor;fill-opacity:1;stroke:none"
       xml:space="preserve"
       class="ColorScheme-Text"><tspan
         id="tspan3783-13-8"
         sodipodi:role="line"
         x="419.30652"
         y="560.42297" /></text>
    <rect
       style="fill:currentColor;fill-opacity:1;stroke:none"
       id="rect4035-9-08"
       width="0"
       height="10.999983"
       x="409.87054"
       y="546.66571"
       class="ColorScheme-Text" />
    <rect
       style="fill:currentColor;fill-opacity:1;stroke:none"
       id="rect4035-5-7-8"
       width="0"
       height="10.999983"
       x="427.91132"
       y="544.61438"
       class="ColorScheme-Text" />
    <rect
       style="fill:currentColor;fill-opacity:1;stroke:none"
       id="rect4035-9-0-2"
       width="0"
       height="10.999983"
       x="389.87054"
       y="546.66571"
       class="ColorScheme-Text" />
    <rect
       style="fill:currentColor;fill-opacity:1;stroke:none"
       id="rect4035-5-7-5-2"
       width="0"
       height="10.999983"
       x="407.91132"
       y="544.61438"
       class="ColorScheme-Text" />
    <rect
       style="fill:currentColor;fill-opacity:1;stroke:none"
       id="rect4035-2"
       width="0"
       height="10.999983"
       x="405.63617"
       y="548.64069"
       class="ColorScheme-Text" />
    <rect
       style="fill:currentColor;fill-opacity:1;stroke:none"
       id="rect4035-5-0"
       width="0"
       height="10.999983"
       x="423.67694"
       y="546.58936"
       class="ColorScheme-Text" />
    <rect
       style="fill:currentColor;fill-opacity:1;stroke:none"
       id="rect4035-8-1"
       width="0"
       height="10.999983"
       x="405.63617"
       y="548.64069"
       class="ColorScheme-Text" />
    <rect
       style="fill:currentColor;fill-opacity:1;stroke:none"
       id="rect4035-59-7"
       width="0"
       height="10.999983"
       x="405.63617"
       y="548.64069"
       class="ColorScheme-Text" />
    <text
       sodipodi:linespacing="125%"
       id="text3781-41"
       y="561.39795"
       x="421.07214"
       style="font-style:normal;font-weight:normal;font-size:9px;line-height:125%;font-family:Sans;letter-spacing:0px;word-spacing:0px;fill:currentColor;fill-opacity:1;stroke:none"
       xml:space="preserve"
       class="ColorScheme-Text"><tspan
         id="tspan3783-9"
         sodipodi:role="line"
         x="421.07214"
         y="561.39795" /></text>
    <text
       sodipodi:linespacing="125%"
       id="text3781-8-7"
       y="555.53461"
       x="421.80884"
       style="font-style:normal;font-weight:normal;font-size:9px;line-height:125%;font-family:Sans;letter-spacing:0px;word-spacing:0px;fill:currentColor;fill-opacity:1;stroke:none"
       xml:space="preserve"
       class="ColorScheme-Text"><tspan
         id="tspan3783-1-2"
         sodipodi:role="line"
         x="421.80884"
         y="555.53461" /></text>
    <text
       sodipodi:linespacing="125%"
       id="text3781-4-3"
       y="562.39795"
       x="415.07214"
       style="font-style:normal;font-weight:normal;font-size:9px;line-height:125%;font-family:Sans;letter-spacing:0px;word-spacing:0px;fill:currentColor;fill-opacity:1;stroke:none"
       xml:space="preserve"
       class="ColorScheme-Text"><tspan
         id="tspan3783-13-6"
         sodipodi:role="line"
         x="415.07214"
         y="562.39795" /></text>
    <rect
       style="fill:currentColor;fill-opacity:1;stroke:none"
       id="rect4035-9-9"
       width="0"
       height="10.999983"
       x="405.63617"
       y="548.64069"
       class="ColorScheme-Text" />
    <rect
       style="fill:currentColor;fill-opacity:1;stroke:none"
       id="rect4035-5-7-9"
       width="0"
       height="10.999983"
       x="423.67694"
       y="546.58936"
       class="ColorScheme-Text" />
    <rect
       style="fill:currentColor;fill-opacity:1;stroke:none"
       id="rect4035-9-0-5"
       width="0"
       height="10.999983"
       x="385.63617"
       y="548.64069"
       class="ColorScheme-Text" />
    <rect
       style="fill:currentColor;fill-opacity:1;stroke:none"
       id="rect4035-5-7-5-3"
       width="0"
       height="10.999983"
       x="403.67694"
       y="546.58936"
       class="ColorScheme-Text" />
  </g>
</svg>
